X:1
T:Liturgische Gesänge
T:Das Volk, so im Finstern wandelt
T:Heinrich von Herzogenberg
T:Das Volk, so im Finstern wandelt
T:Liturgische Gesänge, Op. 81, III4
T:CPDL - Creative Commons Attribution Non Commercial 3.0
T:CPDL - Creative Commons Attribution Non Commercial 3.0
T:CPDL - Creative Commons Attribution Non Commercial 3.0
T:CPDL - Creative Commons Attribution Non Commercial 3.0
T:CPDL - Creative Commons Attribution Non Commercial 3.0
T:CPDL - Creative Commons Attribution Non Commercial 3.0
C:Heinrich von Herzogenberg
Z:CPDL - Creative Commons Attribution Non Commercial 3.0
%%score [ 1 2 3 4 ]
L:1/8
M:3/2
K:Bb
V:1 treble nm="Sopran"
V:2 treble nm="Alt"
V:3 treble-8 nm="Tenor"
V:4 bass nm="Bass"
V:1
 z4 | z12 | z12 | z12 | z12 | z12 | z12 | z12 | z12 | z12 |!mf! B4 d4 =e4 | =e4 f4 g4 | %12
w: ||||||||||sie- het ein|gro- * ßes|
 =e4 c4 f4- | f4 =e2 d2 e4 | f6 f2 _e4- | e2 d2 c6 B2 | A12 |"^cresc." G4 B4 c4 | d8 c4- | %19
w: Licht, ein gro-|* ßes _ _|Licht, ein gro-|* * * ßes|Licht,|sie- het ein|Licht, sie-|
 c4 c4 d4 | e8 d4- | d4 d4 e4 |!f! f8 e4- | e2 d2 c6 B2 |"^dim." A8 A4 | G4 z4 z4 | z12 | z12 | %28
w: * het ein|Licht, sie-|* het ein|gro- *||* ßes|Licht.|||
 z12 | z4!mf! B4 A2 A2 | B2 F2 dc d2- dcBB | e2 e2 ed e2- edcc | f2 f2 z4 z4 | ed e2- ef g2- gfee | %34
w: |schei- net es|hel- le, schei- * * * * net es|hel- le, schei- * * * * net es|hel- le,|schei- * * * * * * * net es,|
 dc d2- defd edcB | cB c2- cdec dcBA | G2 GG GABc A4 | G4 z4 z4 | z12 | z12 | z4 fe f2- fedd | %41
w: schei- * * * * * * * * * *||* net es hel- * * * *|le,|||schei- * * * * net es|
 e2 e2 ed e2- edcc | dc d2- defd edcB | cB c2- cdec dcBA | G2 GG GABc A4 | G4 z4 z4 | %46
w: hel- le, schei- * * * * net es,|schei- * * * * * * * * * *||* net es hel- * * * *|le,|
 z2 f2- fedc B2 G2 | e4- edcB cBAG | ^F2 D2 z4 z4 | z12 | z12 |"^cresc." A4 c4 d4 | e8 d4- | %53
w: hel- * * * * * le,|hel- * * * * * * * *|* le,|||sie- het ein|Licht, sie-|
 d4 d4 e4 |!f! f8 e4- | e2 d2 c6 B2 | A4 d4 c4 | B4 B4 c4- | c4 d4 d4 | =e4 ^f4 g4- | %60
w: * het ein|gro- *|* * * ßes|Licht, sieht ein|gro- ßes Licht,|_ sieht ein|gro- * *|
 g2 =e2 ^f6 f2 | g12- | g12- | g12- | g24 |] %65
w: * * * ßes|Licht.|_|||
V:2
 z4 | z12 | z12 | z12 | z12 | z12 | z12 | z12 |!mf! D4 =E4 ^F4 | G4 B4 c4 | d4 B2 A2 G4 | %11
w: ||||||||sie- het ein|gro- * ßes|Licht, sie- het ein|
 c8 B2 A2 | G4 F2 =E2 F4 | G8 c2 B2 | A4 B2 A2 G2 F2 | _E4 A6 G2- | G2 =E2 ^F6 F2 | %17
w: gro- ßes _|Licht, sie- het ein|gro- * *|||* * * ßes|
"^cresc." G4 G4 =F2 _E2 | D2 C2 B,2 A,2 G,2 G,2 | C4 z4 B2 A2 | G4 G4 ^F2 =E2 | D2 =E2 ^F2 G4 A2- | %22
w: Licht, sie- het ein|gro- * * * * ßes|Licht, sieht _|_ ein gro- *||
 A2 =F2!f! B2 A2 G2 G2 | c2 B2 A6 G2- |"^dim." G2 =E2 ^F6 F2 | G4 z4 z4 | z12 | z12 | %28
w: * ßes Licht, _ _ ein|gro- * * *|* * * ßes|Licht.|||
 z4!mf! G4 ^F2 F2 | G2 D2 D4 E2 E2 | =F2 D2 BA B2- BAGG | G2 G2 cB c2- cBAA | A2 A2 AG A4 BB | %33
w: schei- net es|hel- le, schei- net es|hel- le, schei- * * * * net es|hel- le, schei- * * * * net es|hel- le, schei- * * net es|
 B2 B2 B4 c2 c2 | BA B2- BcdB G2 GG | AG A2- ABcA F2 F2- | FD E4 E2 D2 DD | D4 G,4 z4 | %38
w: hel- le, schei- net es|schei- * * * * * * * net es,|schei- * * * * * * * net|_ es hel- le, schei- net es|hel- le,|
 z4 BA B2- BAGG | G2 G2 cB c2- cBAA | A2 A2 AG A4 BB | B2 B2 B4 c2 c2 | BA B2- BcdB G2 GG | %43
w: schei- * * * * net es|hel- le, schei- * * * * net es|hel- le, schei- * * net es|hel- le, schei- net es,|schei- * * * * * * * net es,|
 AG A2- ABcA F2 F2 | z4 G4 ^F2 F2 | G2 D2 B4 A2 A2 | B2 F2 z4 z4 | z12 | D4 =E4 ^F4 | G4 B4 c4 | %50
w: schei- * * * * * * * net,|schei- net es|hel- le, schei- net es|hel- le,||sie- het ein|gro- * ßes|
 d2 c2 B2 A2 G2 G2 |"^cresc." c8 B2 A2 | G4 G4 ^F2 =E2 | D2 =E2 ^F2 G4 A2- | %54
w: Licht, _ _ _ _ ein|gro- ßes _|Licht, ein gro- *||
 A2 =F2!f! B2 A2 G2 G2 | c2 B2 A6 G2- | G2 =E2 ^F6 F2 | D8 G4 | =E4 ^F4 G4- | G2 B2 A2 c2 B2 G2 | %60
w: * ßes Licht, _ _ ein|gro- * * *|* * * ßes|Licht, sieht|_ ein gro-||
 c2 B2 A2 G2 A2 A2 | G4 A4 =B4 | c12- | c4 =B4 A4 | =B24 |] %65
w: * * * * * ßes|Licht, sieht ein|gro-|* * ßes|Licht.|
V:3
 z4 | z12 | z12 | z12 | z12 | z12 | z12 | z12 | z12 | z12 | z4 z4!mf! g4- | g4 f2 =e2 d4- | %12
w: ||||||||||sie-|* het ein gro-|
 d2 c4 B2 A4 | d4 c2 B2 A2 G2 | F8 G4 | A2 B2 c2 d2 e2 c2 | d4 c2 B2 c2 d2 | %17
w: * * ßes Licht,|sie- * * het ein|gro- *||* * * * ßes|
 e2"^cresc." B2 e2 d2 c4 | B2 c2 d2 f4 =e2 | f2 c2 f2 _e2 d4- | d2 G2 c2 B2 A4- | %21
w: Licht, ein gro- ßes Licht,|sieht _ _ _ ein|Licht, ein gro- ßes Licht,|_ ein gro- ßes Licht,|
 A2!f! G2 A2 B2 G2 e2- | e2 e2 d2 c2 B2 G2 | A2 B2 c2 d2 e2 c2 |"^dim." d4 c2 B2 A4 | B4 z4 z4 | %26
w: _ ein gro- * * *|* ßes, gro- * * *||* * * ßes|Licht.|
 z12 | z12 | z4!mf! e4 A2 A2 | d4 G4 z4 | z12 | z12 | z4 fe f2- fedd | g2 g2 ed e2- edcc | %34
w: ||schei- net es|hel- le,|||schei- * * * * net es|hel- le, schei- * * * * net es|
 f4 F4 z4 | f4 F4 z4 | z4 G4 ^F2 F2 | G2 D2 B4 A2 A2 | B2 =F2 dc d2- dcBB | e2 e2 ed e2- edcc | %40
w: hel- le,|hel- le,|schei- net es|hel- le, schei- net es|hel- le, schei- * * * * net es|hel- le, schei- * * * * net es|
 f2 f2 z4 z4 | ed e2- ef g2- gfeg | f4 F4 z4 | f4 F4 z2 f2- | fded e2 de d4- | d4- dBcd ecde | %46
w: hel- le,|schei- * * * * * * * net es|hel- le,|hel- le, schei-|* * * * * net es hel-||
 fedc dcBA GABc | AG A2- ABcd edcB | A2 D2 z4 z4 | z12 | B4 d4 =e4 |"^cresc." =e4 f2 _e2 d4- | %52
w: ||* le,||sie- het ein|gro- * ßes Licht,|
 d2 G2 c2 B2 A4- | A2 G2 A2 B2 G2 e2- | e2 e2!f! d2 c2 B2 G2 | A2 B2 c2 d2 e2 c2 | d4 c2 B2 A4- | %57
w: _ ein gro- ßes Licht,|_ ein gro- * * *|* ßes, gro- * * *||* * ßes Licht,|
 A2 D2 G2 =F2 =E2 G2 | c2 B2 A2 c2 B4- | B2 G2 d6 B2 | A4 d4 c4 | =B2 G2 =f8- | %62
w: _ ein gro- * * *||* * * ßes|Licht sieht ein|gro- ßes Licht,|
 f2 d2 =e2 c2 e2 ^f2 | g4 d4 c4 | d24 |] %65
w: _ ein gro- * * *|* * ßes|Licht.|
V:4
!p!"^sempre" D,4 | G,,8 A,,4 | B,,8 C,4 | A,,8 B,,4 | C,8 D,4 | B,,8 C,4 | D,8 E,4 | C,8 A,,4 | %8
w: Das|Volk, _|so im|Fin- stern|wan- delt,|so im|Fin- stern|wan- *|
 D,8 D,4 | G,,8 A,,4 | B,,8 C,4 | A,,8 B,,4 | C,8 D,4 | B,,8 C,4 | D,8 E,4 | C,8 A,,4 | D,8 D,4 | %17
w: delt, das|Volk, _|so im|Fin- stern|wan- delt,|so im|Fin- stern|wan- *|delt, das|
 G,,8 A,,4 | B,,8 C,4 | A,,8 B,,4 | C,8 D,4 | B,,8 C,4 | D,8 E,4 | C,8 A,,4 | D,8 D,4 | G,,8 A,,4 | %26
w: Volk _|so im|Fin- stern|wan- delt,|so im|Fin- stern|wan- *|delt; und|ü- ber|
 B,,8 C,4 | A,,8 B,,4 | C,8 D,4 | B,,8 C,4 | D,8 E,4 | C,8 A,,4 | D,8 D,4 | G,,8 A,,4 | B,,8 C,4 | %35
w: die da|woh- *|nen im|fin- *|* stern|Lan- *|de, und|ü- ber|die da|
 A,,8 B,,4 | C,8 D,4 | B,,8 C,4 | D,8 E,4 | C,8 A,,4 | D,8 D,4 | G,,8 A,,4 | B,,8 C,4 | A,,8 B,,4 | %44
w: woh- *|nen im|fin- *|* stern|Lan- *|de; das|Volk, _|so im|Fin- stern|
 C,8 D,4 | B,,8 C,4 | D,8 E,4 | C,8 A,,4 | D,8 D,4 | G,,8 A,,4 | B,,8 C,4 | A,,8 B,,4 | C,8 D,4 | %53
w: wan- delt,|so im|Fin- stern|wan- *|delt, das|Volk, _|so im|Fin- stern|wan- delt,|
 B,,8 C,4 | D,8 E,4 | C,8 A,,4 | D,12- | D,12- | D,12- | D,12- | D,12 | G,,12- | G,,12- | G,,12- | %64
w: so im|Fin- *|* stern|wan-|||||delt.|_||
 G,,24 |] %65
w: |

